X:228
T:Kom Kersti, s{\aa} skola vi sv\"anga
R:sl\"angpolska
H:efter Erik Hjulander, Gustavsberg, Floda (upptecknad av Gustaf Wetter)
H:Jfr #156, #187
A:S\"ormland
Z:id:hn-sp-228
M:3/4
L:1/16
K:Am
E2E2 E4 E2^G2 | B2^G2 A4 B4 | c3B A2c2 B2A2 | A2^GA B8 :|
|: e4 e2d2 B2AB | A4 ^G4 A4 | A2B2 c2d2 B2AB | A8 :|
W:Kom Kersti, s{\aa} skola vi sv\"anga
W:k\"anner jag dig r\"att s{\aa} har du nog lust.
W:
<end>
<start>
